;FLAVOR:Marlin
;TIME:227
;Filament used: 0.443009m
;Layer height: 0.5
;MINX:96.688
;MINY:96.69
;MINZ:0.3
;MAXX:123.311
;MAXY:123.311
;MAXZ:9.8
;Generated with Cura_SteamEngine 4.12.1
M140 S80
M105
M190 S80
M104 S240
M105
M109 S240
M82 ;absolute extrusion mode
G28 ;Home
G1 Z15.0 F2000 ;Move the platform
G92 E0
G92 E0
G1 F1500 E-6.5
;LAYER_COUNT:20
;LAYER:0
M107
M204 S1000
G0 F7500 X98.744 Y103.426 Z0.3
;TYPE:SKIRT
G1 F1500 E0
G1 X99.297 Y102.964 E0.08988
G1 X99.753 Y102.653 E0.15872
G1 X100.03 Y102.481 E0.19939
G1 X100.209 Y102.374 E0.2254
G1 X108.106 Y97.816 E1.36265
G1 X108.662 Y97.506 E1.44204
G1 X109.31 Y97.19 E1.53196
G1 X109.989 Y96.948 E1.62187
G1 X110.69 Y96.783 E1.71169
G1 X111.406 Y96.697 E1.80164
G1 X112.127 Y96.69 E1.89157
G1 X112.844 Y96.763 E1.98146
G1 X113.549 Y96.915 E2.07141
G1 X114.232 Y97.144 E2.16126
G1 X114.886 Y97.448 E2.25121
G1 X115.502 Y97.822 E2.34109
G1 X116.073 Y98.262 E2.431
G1 X116.592 Y98.762 E2.52089
G1 X117.052 Y99.317 E2.6108
G1 X117.359 Y99.769 E2.67895
G1 X117.525 Y100.038 E2.71837
G1 X117.622 Y100.202 E2.74214
G1 X122.165 Y108.073 E3.87564
G1 X122.489 Y108.652 E3.9584
G1 X122.806 Y109.299 E4.04826
G1 X123.049 Y109.978 E4.13821
G1 X123.215 Y110.68 E4.22818
G1 X123.303 Y111.395 E4.31803
G1 X123.311 Y112.116 E4.40796
G1 X123.239 Y112.833 E4.49784
G1 X123.088 Y113.538 E4.58777
G1 X122.859 Y114.222 E4.67773
G1 X122.557 Y114.876 E4.76758
G1 X122.184 Y115.493 E4.85751
G1 X121.745 Y116.065 E4.94744
G1 X121.245 Y116.584 E5.03732
G1 X120.691 Y117.045 E5.12722
G1 X120.24 Y117.351 E5.19519
G1 X119.964 Y117.522 E5.23569
G1 X119.791 Y117.626 E5.26087
G1 X111.927 Y122.165 E6.39336
G1 X111.348 Y122.489 E6.47612
G1 X110.701 Y122.806 E6.56598
G1 X110.022 Y123.049 E6.65593
G1 X109.32 Y123.215 E6.7459
G1 X108.605 Y123.303 E6.83575
G1 X107.884 Y123.311 E6.92569
G1 X107.167 Y123.239 E7.01556
G1 X106.462 Y123.088 E7.10549
G1 X105.778 Y122.859 E7.19546
G1 X105.124 Y122.557 E7.2853
G1 X104.507 Y122.184 E7.37523
G1 X103.935 Y121.745 E7.46516
G1 X103.416 Y121.245 E7.55505
G1 X102.955 Y120.691 E7.64494
G1 X102.646 Y120.237 E7.71344
G1 X102.474 Y119.959 E7.75421
G1 X102.373 Y119.789 E7.77887
G1 X97.841 Y111.939 E8.90942
G1 X97.516 Y111.361 E8.99213
G1 X97.198 Y110.714 E9.08205
G1 X96.954 Y110.036 E9.17192
G1 X96.786 Y109.335 E9.26183
G1 X96.697 Y108.619 E9.35182
G1 X96.688 Y107.899 E9.44163
G1 X96.758 Y107.181 E9.5316
G1 X96.908 Y106.476 E9.6215
G1 X97.135 Y105.792 E9.71139
G1 X97.436 Y105.137 E9.8013
G1 X97.807 Y104.519 E9.8912
G1 X98.245 Y103.947 E9.98106
G1 X98.744 Y103.426 E10.07104
G0 F7500 X99.408 Y104.174
G1 F1500 X99.917 Y103.749 E10.15375
G1 X100.281 Y103.503 E10.20854
G1 X100.558 Y103.331 E10.24921
G1 X100.709 Y103.24 E10.2712
G1 X108.593 Y98.689 E11.4066
G1 X109.149 Y98.379 E11.486
G1 X109.746 Y98.092 E11.56862
G1 X110.374 Y97.878 E11.65137
G1 X111.023 Y97.742 E11.73408
G1 X111.683 Y97.685 E11.8167
G1 X112.346 Y97.708 E11.89944
G1 X113.001 Y97.81 E11.98212
G1 X113.639 Y97.99 E12.06481
G1 X114.251 Y98.246 E12.14755
G1 X114.827 Y98.573 E12.23016
G1 X115.36 Y98.968 E12.3129
G1 X115.842 Y99.424 E12.39566
G1 X116.265 Y99.934 E12.4783
G1 X116.508 Y100.295 E12.53258
G1 X116.674 Y100.564 E12.572
G1 X116.756 Y100.702 E12.59203
G1 X121.293 Y108.561 E13.72386
G1 X121.617 Y109.14 E13.80661
G1 X121.905 Y109.737 E13.88929
G1 X122.119 Y110.365 E13.97204
G1 X122.257 Y111.013 E14.05467
G1 X122.315 Y111.674 E14.13743
G1 X122.293 Y112.336 E14.22005
G1 X122.192 Y112.992 E14.30283
G1 X122.013 Y113.63 E14.38548
G1 X121.758 Y114.242 E14.46817
G1 X121.431 Y114.819 E14.55089
G1 X121.038 Y115.353 E14.63359
G1 X120.583 Y115.835 E14.71626
G1 X120.073 Y116.259 E14.79898
G1 X119.714 Y116.501 E14.85298
G1 X119.438 Y116.672 E14.89348
G1 X119.291 Y116.76 E14.91485
G1 X111.439 Y121.293 E16.04567
G1 X110.86 Y121.617 E16.12843
G1 X110.263 Y121.905 E16.2111
G1 X109.635 Y122.119 E16.29385
G1 X108.987 Y122.257 E16.37648
G1 X108.326 Y122.315 E16.45924
G1 X107.664 Y122.293 E16.54186
G1 X107.008 Y122.192 E16.62464
G1 X106.37 Y122.013 E16.70729
G1 X105.758 Y121.758 E16.78998
G1 X105.181 Y121.431 E16.8727
G1 X104.647 Y121.038 E16.9554
G1 X104.165 Y120.583 E17.03807
G1 X103.741 Y120.073 E17.12079
G1 X103.497 Y119.711 E17.17524
G1 X103.325 Y119.433 E17.21602
G1 X103.239 Y119.289 E17.23694
G1 X98.713 Y111.449 E18.36603
G1 X98.388 Y110.871 E18.44874
G1 X98.098 Y110.274 E18.53152
G1 X97.883 Y109.647 E18.61419
G1 X97.744 Y108.999 E18.69685
G1 X97.684 Y108.339 E18.77951
G1 X97.705 Y107.676 E18.86225
G1 X97.805 Y107.02 E18.94501
G1 X97.983 Y106.382 E19.02762
G1 X98.236 Y105.769 E19.11034
G1 X98.562 Y105.191 E19.1931
G1 X98.954 Y104.657 E19.27573
G1 X99.408 Y104.174 E19.3584
G0 F7500 X100.116 Y104.881
G1 F1500 X100.808 Y104.352 E19.46705
G1 X101.085 Y104.18 E19.50771
G1 X101.209 Y104.106 E19.52572
G1 X109.08 Y99.563 E20.65923
G1 X109.636 Y99.253 E20.73863
G1 X110.178 Y98.996 E20.81344
G1 X110.749 Y98.814 E20.88819
G1 X111.339 Y98.709 E20.96293
G1 X111.939 Y98.684 E21.03783
G1 X112.536 Y98.739 E21.11261
G1 X113.12 Y98.873 E21.18734
G1 X113.682 Y99.083 E21.26217
G1 X114.211 Y99.366 E21.337
G1 X114.697 Y99.717 E21.41177
G1 X115.132 Y100.129 E21.4865
G1 X115.657 Y100.82 E21.59474
G1 X115.823 Y101.089 E21.63417
G1 X115.89 Y101.202 E21.65055
G1 X120.42 Y109.05 E22.78076
G1 X120.744 Y109.629 E22.86351
G1 X121.001 Y110.17 E22.93822
G1 X121.184 Y110.741 E23.013
G1 X121.29 Y111.332 E23.08789
G1 X121.316 Y111.931 E23.16267
G1 X121.262 Y112.528 E23.23744
G1 X121.129 Y113.113 E23.31226
G1 X120.92 Y113.675 E23.38705
G1 X120.638 Y114.204 E23.46182
G1 X120.287 Y114.691 E23.53669
G1 X119.876 Y115.127 E23.61143
G1 X119.187 Y115.651 E23.71939
G1 X118.791 Y115.894 E23.77734
G1 X110.95 Y120.42 E24.90654
G1 X110.371 Y120.744 E24.9893
G1 X109.83 Y121.001 E25.064
G1 X109.259 Y121.184 E25.13879
G1 X108.668 Y121.29 E25.21368
G1 X108.069 Y121.316 E25.28846
G1 X107.472 Y121.262 E25.36322
G1 X106.887 Y121.129 E25.43805
G1 X106.325 Y120.92 E25.51283
G1 X105.796 Y120.638 E25.5876
G1 X105.309 Y120.287 E25.66248
G1 X104.873 Y119.876 E25.73721
G1 X104.347 Y119.185 E25.84552
G1 X104.175 Y118.907 E25.8863
G1 X104.105 Y118.789 E25.90341
G1 X99.585 Y110.959 E27.03105
G1 X99.26 Y110.381 E27.11376
G1 X99.001 Y109.839 E27.18868
G1 X98.817 Y109.269 E27.26339
G1 X98.71 Y108.679 E27.33817
G1 X98.683 Y108.08 E27.41296
G1 X98.736 Y107.482 E27.48784
G1 X98.867 Y106.897 E27.56261
G1 X99.075 Y106.335 E27.63735
G1 X99.357 Y105.805 E27.71223
G1 X99.706 Y105.318 E27.78696
G1 X100.116 Y104.881 E27.8617
G0 F7500 X100.869 Y105.548
G1 F1500 X101.336 Y105.202 E27.93419
G1 X101.709 Y104.972 E27.98885
G1 X109.567 Y100.436 E29.12051
G1 X110.123 Y100.126 E29.19991
G1 X110.603 Y99.904 E29.26587
G1 X111.11 Y99.757 E29.33171
G1 X111.635 Y99.688 E29.39775
G1 X112.163 Y99.699 E29.46362
G1 X112.684 Y99.79 E29.52959
G1 X113.186 Y99.958 E29.59561
G1 X113.656 Y100.199 E29.66149
G1 X114.085 Y100.509 E29.72751
G1 X114.462 Y100.879 E29.79339
G1 X114.806 Y101.345 E29.86563
G1 X114.972 Y101.614 E29.90506
G1 X119.524 Y109.497 E31.04042
G1 X119.871 Y110.117 E31.12904
G1 X120.094 Y110.596 E31.19494
G1 X120.242 Y111.104 E31.26093
G1 X120.311 Y111.628 E31.32685
G1 X120.301 Y112.157 E31.39285
G1 X120.212 Y112.678 E31.45877
G1 X120.045 Y113.18 E31.52475
G1 X119.804 Y113.651 E31.59074
G1 X119.495 Y114.08 E31.65669
G1 X119.125 Y114.457 E31.72257
G1 X118.66 Y114.801 E31.79471
G1 X118.291 Y115.028 E31.84875
G1 X110.462 Y119.547 E32.97622
G1 X109.883 Y119.871 E33.05897
G1 X109.404 Y120.094 E33.12487
G1 X108.896 Y120.242 E33.19087
G1 X108.372 Y120.311 E33.25679
G1 X107.843 Y120.301 E33.32278
G1 X107.322 Y120.212 E33.3887
G1 X106.82 Y120.045 E33.45469
G1 X106.349 Y119.804 E33.52068
G1 X105.92 Y119.495 E33.58662
G1 X105.543 Y119.125 E33.6525
G1 X105.198 Y118.659 E33.72482
G1 X104.971 Y118.289 E33.77896
G1 X100.456 Y110.468 E34.90532
G1 X100.131 Y109.89 E34.98803
G1 X99.908 Y109.411 E35.05393
G1 X99.759 Y108.904 E35.11984
G1 X99.688 Y108.38 E35.18579
G1 X99.697 Y107.851 E35.25178
G1 X99.786 Y107.33 E35.3177
G1 X99.952 Y106.828 E35.38365
G1 X100.191 Y106.357 E35.44953
G1 X100.5 Y105.927 E35.51557
G1 X100.869 Y105.548 E35.58154
G1 F1500 E29.08154
;MESH:untitled.stl
G0 F7500 X105.238 Y108.724
G0 X110.183 Y109.317
;TYPE:WALL-INNER
G1 F1500 E35.58154
G1 X110.683 Y110.183 E35.70627
G1 X109.817 Y110.683 E35.83099
G1 X109.317 Y109.817 E35.95571
G1 X110.183 Y109.317 E36.08044
G0 F7500 X110.549 Y107.951
G1 F1500 X112.049 Y110.549 E36.4546
G1 X109.451 Y112.049 E36.82877
G1 X107.951 Y109.451 E37.20294
G1 X110.549 Y107.951 E37.57711
G0 F7500 X110.915 Y106.585
G1 F1500 X113.415 Y110.915 E38.20072
G1 X109.085 Y113.415 E38.82434
G1 X106.585 Y109.085 E39.44795
G1 X110.915 Y106.585 E40.07156
G0 F7500 X111.256 Y105.315
G0 X111.281 Y105.219
G1 F1500 X114.781 Y111.281 E40.94462
G1 X108.719 Y114.781 E41.81768
G1 X105.219 Y108.719 E42.69074
G1 X111.281 Y105.219 E43.5638
G0 F7500 X111.256 Y105.315
G0 X111.647 Y103.853
;TYPE:WALL-OUTER
G1 F1500 X116.147 Y111.647 E44.68631
G1 X108.353 Y116.147 E45.80881
G1 X103.853 Y108.353 E46.93132
G1 X111.647 Y103.853 E48.05382
G0 F7500 X111.747 Y104.026
G0 X111.244 Y105.356
G0 X110.915 Y106.585
;MESH:NONMESH
G0 F300 X110.915 Y106.585 Z0.8
G0 F7500 X109.817 Y110.683
;TIME_ELAPSED:22.423655
;LAYER:1
M106 S85
;TYPE:WALL-INNER
;MESH:untitled.stl
G1 F605.7 X109.317 Y109.817 E48.26169
G1 X110.183 Y109.317 E48.46956
G1 X110.683 Y110.183 E48.67743
G1 X109.817 Y110.683 E48.88531
G0 F8250 X109.451 Y112.049
G1 F605.7 X107.951 Y109.451 E49.50892
G1 X110.549 Y107.951 E50.13253
G1 X112.049 Y110.549 E50.75615
G1 X109.451 Y112.049 E51.37976
G0 F8250 X109.085 Y113.415
G1 F605.7 X106.585 Y109.085 E52.41912
G1 X110.915 Y106.585 E53.45847
G1 X113.415 Y110.915 E54.49783
G1 X109.085 Y113.415 E55.53719
G0 F8250 X108.744 Y114.685
G0 X108.719 Y114.781
G1 F605.7 X105.219 Y108.719 E56.99229
G1 X111.281 Y105.219 E58.44738
G1 X114.781 Y111.281 E59.90248
G1 X108.719 Y114.781 E61.35758
G0 F8250 X108.744 Y114.685
G0 X108.353 Y116.147
;TYPE:WALL-OUTER
G1 F605.7 X103.853 Y108.353 E63.22842
G1 X111.647 Y103.853 E65.09926
G1 X116.147 Y111.647 E66.97011
G1 X108.353 Y116.147 E68.84095
G0 F8250 X108.253 Y115.974
G0 X108.756 Y114.644
G0 X109.085 Y113.415
;MESH:NONMESH
G0 F300 X109.085 Y113.415 Z1.3
G0 F8250 X109.317 Y109.817
;TIME_ELAPSED:33.195595
;LAYER:2
M106 S170
;TYPE:WALL-INNER
;MESH:untitled.stl
G1 F605 X110.183 Y109.317 E69.04882
G1 X110.683 Y110.183 E69.25669
G1 X109.817 Y110.683 E69.46456
G1 X109.317 Y109.817 E69.67243
G0 F9000 X107.951 Y109.451
G1 F605 X110.549 Y107.951 E70.29605
G1 X112.049 Y110.549 E70.91966
G1 X109.451 Y112.049 E71.54327
G1 X107.951 Y109.451 E72.16689
G0 F9000 X106.585 Y109.085
G1 F605 X110.915 Y106.585 E73.20624
G1 X113.415 Y110.915 E74.2456
G1 X109.085 Y113.415 E75.28496
G1 X106.585 Y109.085 E76.32431
G0 F9000 X105.315 Y108.744
G0 X105.219 Y108.719
G1 F605 X111.281 Y105.219 E77.77941
G1 X114.781 Y111.281 E79.23451
G1 X108.719 Y114.781 E80.68961
G1 X105.219 Y108.719 E82.14471
G0 F9000 X105.315 Y108.744
G0 X103.853 Y108.353
;TYPE:WALL-OUTER
G1 F605 X111.647 Y103.853 E84.01555
G1 X116.147 Y111.647 E85.88639
G1 X108.353 Y116.147 E87.75723
G1 X103.853 Y108.353 E89.62807
G0 F9000 X104.026 Y108.253
G0 X105.356 Y108.756
G0 X106.585 Y109.085
;MESH:NONMESH
G0 F300 X106.585 Y109.085 Z1.8
G0 F9000 X110.683 Y110.183
;TIME_ELAPSED:43.994988
;LAYER:3
M106 S255
;TYPE:WALL-INNER
;MESH:untitled.stl
G1 F605.2 X109.817 Y110.683 E89.83595
G1 X109.317 Y109.817 E90.04382
G1 X110.183 Y109.317 E90.25169
G1 X110.683 Y110.183 E90.45956
G0 F9000 X112.049 Y110.549
G1 F605.2 X109.451 Y112.049 E91.08317
G1 X107.951 Y109.451 E91.70679
G1 X110.549 Y107.951 E92.3304
G1 X112.049 Y110.549 E92.95401
G0 F9000 X113.415 Y110.915
G1 F605.2 X109.085 Y113.415 E93.99337
G1 X106.585 Y109.085 E95.03273
G1 X110.915 Y106.585 E96.07208
G1 X113.415 Y110.915 E97.11144
G0 F9000 X114.685 Y111.256
G0 X114.781 Y111.281
G1 F605.2 X108.719 Y114.781 E98.56654
G1 X105.219 Y108.719 E100.02164
G1 X111.281 Y105.219 E101.47674
G1 X114.781 Y111.281 E102.93184
G0 F9000 X114.685 Y111.256
G0 X116.147 Y111.647
;TYPE:WALL-OUTER
G1 F605.2 X108.353 Y116.147 E104.80268
G1 X103.853 Y108.353 E106.67352
G1 X111.647 Y103.853 E108.54436
G1 X116.147 Y111.647 E110.4152
G0 F9000 X115.974 Y111.747
G0 X114.644 Y111.244
G0 X113.415 Y110.915
;MESH:NONMESH
G0 F300 X113.415 Y110.915 Z2.3
G0 F9000 X110.183 Y109.317
;TIME_ELAPSED:54.775851
;LAYER:4
;TYPE:WALL-INNER
;MESH:untitled.stl
G1 F605 X110.683 Y110.183 E110.62307
G1 X109.817 Y110.683 E110.83094
G1 X109.317 Y109.817 E111.03882
G1 X110.183 Y109.317 E111.24669
G0 F9000 X110.549 Y107.951
G1 F605 X112.049 Y110.549 E111.8703
G1 X109.451 Y112.049 E112.49391
G1 X107.951 Y109.451 E113.11753
G1 X110.549 Y107.951 E113.74114
G0 F9000 X110.915 Y106.585
G1 F605 X113.415 Y110.915 E114.7805
G1 X109.085 Y113.415 E115.81985
G1 X106.585 Y109.085 E116.85921
G1 X110.915 Y106.585 E117.89857
G0 F9000 X111.256 Y105.315
G0 X111.281 Y105.219
G1 F605 X114.781 Y111.281 E119.35367
G1 X108.719 Y114.781 E120.80877
G1 X105.219 Y108.719 E122.26386
G1 X111.281 Y105.219 E123.71896
G0 F9000 X111.256 Y105.315
G0 X111.647 Y103.853
;TYPE:WALL-OUTER
G1 F605 X116.147 Y111.647 E125.5898
G1 X108.353 Y116.147 E127.46065
G1 X103.853 Y108.353 E129.33149
G1 X111.647 Y103.853 E131.20233
G0 F9000 X111.747 Y104.026
G0 X111.244 Y105.356
G0 X110.915 Y106.585
;MESH:NONMESH
G0 F300 X110.915 Y106.585 Z2.8
G0 F9000 X110.183 Y109.317
;TIME_ELAPSED:65.541558
;LAYER:5
;TYPE:WALL-INNER
;MESH:untitled.stl
G1 F604.7 X110.683 Y110.183 E131.4102
G1 X109.817 Y110.683 E131.61807
G1 X109.317 Y109.817 E131.82594
G1 X110.183 Y109.317 E132.03381
G0 F9000 X110.549 Y107.951
G1 F604.7 X112.049 Y110.549 E132.65743
G1 X109.451 Y112.049 E133.28104
G1 X107.951 Y109.451 E133.90466
G1 X110.549 Y107.951 E134.52827
G0 F9000 X110.915 Y106.585
G1 F604.7 X113.415 Y110.915 E135.56763
G1 X109.085 Y113.415 E136.60698
G1 X106.585 Y109.085 E137.64634
G1 X110.915 Y106.585 E138.68569
G0 F9000 X111.256 Y105.315
G0 X111.281 Y105.219
G1 F604.7 X114.781 Y111.281 E140.14079
G1 X108.719 Y114.781 E141.59589
G1 X105.219 Y108.719 E143.05099
G1 X111.281 Y105.219 E144.50609
G0 F9000 X111.256 Y105.315
G0 X111.647 Y103.853
;TYPE:WALL-OUTER
G1 F604.7 X116.147 Y111.647 E146.37693
G1 X108.353 Y116.147 E148.24777
G1 X103.853 Y108.353 E150.11861
G1 X111.647 Y103.853 E151.98946
G0 F9000 X111.747 Y104.026
G0 X111.244 Y105.356
G0 X110.915 Y106.585
;MESH:NONMESH
G0 F300 X110.915 Y106.585 Z3.3
G0 F9000 X109.317 Y109.817
;TIME_ELAPSED:76.331702
;LAYER:6
;TYPE:WALL-INNER
;MESH:untitled.stl
G1 F605 X110.183 Y109.317 E152.19733
G1 X110.683 Y110.183 E152.4052
G1 X109.817 Y110.683 E152.61307
G1 X109.317 Y109.817 E152.82094
G0 F9000 X107.951 Y109.451
G1 F605 X110.549 Y107.951 E153.44455
G1 X112.049 Y110.549 E154.06817
G1 X109.451 Y112.049 E154.69178
G1 X107.951 Y109.451 E155.3154
G0 F9000 X106.585 Y109.085
G1 F605 X110.915 Y106.585 E156.35475
G1 X113.415 Y110.915 E157.39411
G1 X109.085 Y113.415 E158.43347
G1 X106.585 Y109.085 E159.47282
G0 F9000 X105.315 Y108.744
G0 X105.219 Y108.719
G1 F605 X111.281 Y105.219 E160.92792
G1 X114.781 Y111.281 E162.38302
G1 X108.719 Y114.781 E163.83812
G1 X105.219 Y108.719 E165.29322
G0 F9000 X105.315 Y108.744
G0 X103.853 Y108.353
;TYPE:WALL-OUTER
G1 F605 X111.647 Y103.853 E167.16406
G1 X116.147 Y111.647 E169.0349
G1 X108.353 Y116.147 E170.90574
G1 X103.853 Y108.353 E172.77658
G0 F9000 X104.026 Y108.253
G0 X105.356 Y108.756
G0 X106.585 Y109.085
;MESH:NONMESH
G0 F300 X106.585 Y109.085 Z3.8
G0 F9000 X109.317 Y109.817
;TIME_ELAPSED:87.097409
;LAYER:7
;TYPE:WALL-INNER
;MESH:untitled.stl
G1 F604.7 X110.183 Y109.317 E172.98445
G1 X110.683 Y110.183 E173.19233
G1 X109.817 Y110.683 E173.4002
G1 X109.317 Y109.817 E173.60807
G0 F9000 X107.951 Y109.451
G1 F604.7 X110.549 Y107.951 E174.23168
G1 X112.049 Y110.549 E174.8553
G1 X109.451 Y112.049 E175.47891
G1 X107.951 Y109.451 E176.10252
G0 F9000 X106.585 Y109.085
G1 F604.7 X110.915 Y106.585 E177.14188
G1 X113.415 Y110.915 E178.18124
G1 X109.085 Y113.415 E179.22059
G1 X106.585 Y109.085 E180.25995
G0 F9000 X105.315 Y108.744
G0 X105.219 Y108.719
G1 F604.7 X111.281 Y105.219 E181.71505
